app/images/social/pinterest.svg

<svg width="16" height="15" viewBox="0 0 16 15" fill="none" xmlns="http://www.w3.org/2000/svg">
<path d="M15.75 8C15.75 3.71875 12.2812 0.25 8 0.25C3.71875 0.25 0.25 3.71875 0.25 8C0.25 11.3125 2.28125 14.0938 5.15625 15.2188C5.09375 14.625 5.03125 13.6875 5.1875 13C5.34375 12.4062 6.09375 9.15625 6.09375 9.15625C6.09375 9.15625 5.875 8.6875 5.875 8C5.875 6.9375 6.5 6.125 7.28125 6.125C7.9375 6.125 8.25 6.625 8.25 7.21875C8.25 7.875 7.8125 8.875 7.59375 9.8125C7.4375 10.5625 8 11.1875 8.75 11.1875C10.125 11.1875 11.1875 9.75 11.1875 7.65625C11.1875 5.78125 9.84375 4.5 7.96875 4.5C5.75 4.5 4.46875 6.15625 4.46875 7.84375C4.46875 8.53125 4.71875 9.25 5.03125 9.625C5.09375 9.6875 5.09375 9.78125 5.09375 9.84375C5.03125 10.0938 4.875 10.625 4.875 10.7188C4.84375 10.875 4.75 10.9062 4.59375 10.8438C3.625 10.375 3.03125 8.96875 3.03125 7.8125C3.03125 5.375 4.8125 3.125 8.15625 3.125C10.8438 3.125 12.9375 5.0625 12.9375 7.625C12.9375 10.2812 11.25 12.4375 8.90625 12.4375C8.125 12.4375 7.375 12.0312 7.125 11.5312C7.125 11.5312 6.75 13.0312 6.65625 13.375C6.46875 14.0625 6 14.9062 5.6875 15.4062C6.40625 15.6562 7.1875 15.75 8 15.75C12.2812 15.75 15.75 12.2812 15.75 8Z" fill="#707070"/>
</svg>

<svg width="16" height="15" fill="none" xmlns="http://www.w3.org/2000/svg"><path d="M15.75 8A7.749 7.749 0 008 .25 7.749 7.749 0 00.25 8a7.714 7.714 0 004.906 7.219c-.062-.594-.125-1.531.032-2.219.156-.594.906-3.844.906-3.844S5.875 8.687 5.875 8c0-1.063.625-1.875 1.406-1.875.657 0 .969.5.969 1.094 0 .656-.438 1.656-.656 2.593-.157.75.406 1.376 1.156 1.376 1.375 0 2.438-1.438 2.438-3.532 0-1.875-1.344-3.156-3.22-3.156-2.218 0-3.5 1.656-3.5 3.344 0 .687.25 1.406.563 1.781.063.063.063.156.063.219-.063.25-.219.781-.219.875-.031.156-.125.187-.281.125-.969-.469-1.563-1.875-1.563-3.031 0-2.438 1.781-4.688 5.125-4.688 2.688 0 4.781 1.938 4.781 4.5 0 2.656-1.687 4.813-4.03 4.813-.782 0-1.532-.407-1.782-.907 0 0-.375 1.5-.469 1.844-.187.688-.656 1.531-.968 2.031.718.25 1.5.344 2.312.344A7.749 7.749 0 0015.75 8z" fill="#707070"/></svg>
